_src/static/img/icon/tiktok.svg

<svg width="85" height="96" viewBox="0 0 85 96" fill="none" xmlns="http://www.w3.org/2000/svg">
<path d="M28.7917 49.7793C21.1479 49.7793 14.9725 55.9547 15.0855 63.5232C15.1608 68.3806 17.8343 72.5979 21.7692 74.9513C20.4324 72.8992 19.6417 70.4704 19.604 67.8535C19.4911 60.2849 25.6664 54.1096 33.3102 54.1096C34.8164 54.1096 36.2661 54.3544 37.6217 54.7874V39.6315C36.2096 39.4244 34.7599 39.3114 33.3102 39.3114C33.2349 39.3114 33.1785 39.3114 33.1031 39.3114V50.4571C31.7476 50.0241 30.2979 49.7793 28.7917 49.7793Z" fill="#F00044"/>
<path d="M61.8337 4.33032H61.7207H57.8047C58.9343 9.99731 62.1161 14.93 66.5593 18.2813C63.6411 14.4217 61.8714 9.60194 61.8337 4.33032Z" fill="#F00044"/>
<path d="M84.8786 27.3936C83.3912 27.3936 81.9604 27.2429 80.5483 26.9794V37.8427C75.4273 37.8427 70.457 36.8448 65.7878 34.8491C62.7755 33.5689 59.9702 31.9309 57.3909 29.9541L57.4662 63.4477C57.4285 70.9786 54.4538 78.0388 49.0692 83.3669C44.6825 87.6971 39.1285 90.4647 33.1038 91.3496C31.6917 91.5567 30.242 91.6697 28.7923 91.6697C22.3534 91.6697 16.2158 89.5798 11.2266 85.7203C11.7914 86.398 12.3938 87.057 13.0528 87.6971C18.475 93.0441 25.667 95.9999 33.3297 95.9999C34.7794 95.9999 36.2291 95.887 37.6411 95.6799C43.6658 94.795 49.2199 92.0274 53.6066 87.6971C58.9912 82.369 61.9659 75.3088 62.0035 67.7779L61.7211 34.2843C64.2816 36.2612 67.0869 37.918 70.1181 39.1794C74.806 41.1563 79.7764 42.1729 84.8786 42.1729" fill="#F00044"/>
<path d="M12.997 47.6518C18.3628 42.3237 25.4983 39.3678 33.1045 39.3113V35.3011C31.6925 35.094 30.2428 34.9811 28.7931 34.9811C21.1116 34.9811 13.9007 37.937 8.47851 43.3215C3.15041 48.612 0.1004 55.8416 0.119227 63.3537C0.119227 70.9222 3.11275 78.0201 8.51616 83.3858C9.38222 84.2331 10.2671 85.0238 11.2085 85.7392C6.95351 80.6747 4.63776 74.3488 4.61893 67.684C4.63776 60.1719 7.66894 52.9422 12.997 47.6518Z" fill="#08FFF9"/>
<path d="M80.5498 26.9797V22.9507H80.5122C75.2782 22.9507 70.4585 21.2186 66.5801 18.2815C69.9501 22.7247 74.8829 25.8877 80.5498 26.9797Z" fill="#08FFF9"/>
<path d="M32.5387 81.1829C34.3273 81.2771 36.0405 81.0323 37.622 80.524C43.0819 78.7354 47.0168 73.652 47.0168 67.665L47.0356 45.2606V4.33026H57.8048C57.5224 2.91822 57.3718 1.48735 57.3529 0H42.5171V40.9115L42.4983 63.3159C42.4983 69.303 38.5634 74.3863 33.1035 76.1749C31.522 76.7021 29.8087 76.9468 28.0202 76.8338C25.7421 76.7021 23.6146 76.0243 21.7695 74.9323C24.0853 78.5095 28.039 80.9382 32.5387 81.1829Z" fill="#08FFF9"/>
<path d="M33.1036 91.3495C39.1283 90.4647 44.6823 87.6971 49.069 83.3668C54.4536 78.0387 57.4283 70.9785 57.466 63.4476L57.3907 29.954C59.9512 31.9309 62.7564 33.5877 65.7876 34.8491C70.4756 36.8259 75.446 37.8426 80.5481 37.8426V26.9793C74.8811 25.8873 69.9484 22.7244 66.5783 18.2811C62.1351 14.9299 58.9345 9.99716 57.8237 4.33017H47.0357V45.2417L47.0169 67.6461C47.0169 73.6331 43.082 78.7165 37.6221 80.5051C36.0406 81.0322 34.3273 81.277 32.5387 81.164C28.0202 80.9193 24.0853 78.4906 21.7696 74.9322C17.8347 72.5976 15.1612 68.3615 15.0859 63.5041C14.9729 55.9356 21.1483 49.7602 28.7921 49.7602C30.2983 49.7602 31.748 50.005 33.1036 50.438V39.2923C25.4974 39.3488 18.3618 42.3047 12.9961 47.6328C7.66799 52.9232 4.61798 60.1529 4.63681 67.6461C4.63681 74.3109 6.95255 80.6369 11.2263 85.7014C16.2344 89.561 22.3532 91.6508 28.7921 91.6508C30.2418 91.6696 31.6915 91.5566 33.1036 91.3495Z" fill="black"/>
</svg>

<svg width="85" height="96" fill="none" xmlns="http://www.w3.org/2000/svg"><path d="M28.792 49.78c-7.644 0-13.82 6.175-13.707 13.743.076 4.858 2.75 9.075 6.684 11.428a13.303 13.303 0 01-2.165-7.097c-.113-7.57 6.062-13.744 13.706-13.744 1.506 0 2.956.244 4.312.677V39.632a29.805 29.805 0 00-4.312-.32h-.207v11.145a14.155 14.155 0 00-4.311-.678zM61.834 4.33h-4.029a23.15 23.15 0 008.754 13.951 23.32 23.32 0 01-4.725-13.95z" fill="#F00044"/><path d="M84.879 27.394c-1.488 0-2.919-.151-4.33-.415v10.864c-5.122 0-10.092-.998-14.761-2.994a38.561 38.561 0 01-8.397-4.895l.075 33.494c-.038 7.53-3.012 14.59-8.397 19.919-4.387 4.33-9.94 7.098-15.965 7.983-1.412.207-2.862.32-4.312.32-6.439 0-12.576-2.09-17.565-5.95a25.507 25.507 0 001.826 1.977C18.475 93.044 25.667 96 33.33 96c1.45 0 2.9-.113 4.311-.32 6.025-.885 11.579-3.653 15.966-7.983 5.384-5.328 8.359-12.388 8.397-19.92l-.283-33.493a36.983 36.983 0 008.397 4.895 37.814 37.814 0 0014.76 2.994" fill="#F00044"/><path d="M12.997 47.652c5.366-5.328 12.501-8.284 20.108-8.34v-4.01a29.802 29.802 0 00-4.312-.32c-7.681 0-14.892 2.955-20.314 8.34C3.15 48.611.1 55.841.119 63.353c0 7.568 2.994 14.666 8.397 20.032a28.56 28.56 0 002.693 2.353c-4.255-5.064-6.571-11.39-6.59-18.055a28.386 28.386 0 018.378-20.032zM80.55 26.98v-4.03h-.038a22.977 22.977 0 01-13.932-4.668 23 23 0 0013.97 8.698z" fill="#08FFF9"/><path d="M32.539 81.183c1.788.094 3.502-.15 5.083-.659 5.46-1.789 9.395-6.872 9.395-12.859l.019-22.404V4.33h10.769A23.46 23.46 0 0157.353 0H42.517v40.911l-.019 22.405c0 5.987-3.935 11.07-9.395 12.859a13.36 13.36 0 01-5.083.659 13.812 13.812 0 01-6.25-1.902 13.734 13.734 0 0010.769 6.25z" fill="#08FFF9"/><path d="M33.104 91.35c6.024-.885 11.578-3.653 15.965-7.983 5.385-5.328 8.36-12.389 8.397-19.92l-.075-33.493a36.982 36.982 0 008.397 4.895 37.816 37.816 0 0014.76 2.994V26.979a23 23 0 01-13.97-8.698c-4.443-3.351-7.644-8.284-8.754-13.95H47.036v40.91l-.02 22.405c0 5.987-3.934 11.07-9.394 12.86a13.362 13.362 0 01-5.083.658 13.736 13.736 0 01-10.77-6.232c-3.934-2.334-6.608-6.57-6.683-11.428-.113-7.568 6.062-13.744 13.706-13.744 1.506 0 2.956.245 4.312.678V39.292c-7.607.057-14.742 3.013-20.108 8.34-5.328 5.291-8.378 12.52-8.36 20.014 0 6.665 2.317 12.99 6.59 18.055 5.008 3.86 11.127 5.95 17.566 5.95 1.45.019 2.9-.094 4.312-.301z" fill="#000"/></svg>
